X:1
T: Bill
C:
R:Reel
Q:232
K:A
M:4/4
L:1/8
|:AB cd e2c2|d2B2 G2E2|A2a2 ((3aba) ga|b2B2 B3c|
de fg ab c'd'|e'd' c'b ag fe|dc BA GF ED|C2D2 E2G2|
A2a2 ag ab|c'b ag a2e2|f2b2 b^a bc'|d'c' ba gf ed|
cB AG FE DC|DE FG A2e2|dc BA GF ED|C2A,2 A,4:|
